app/dist/common/images/shanghai-zhonggu-logistics.svg

<svg height="18" viewBox="0 0 18 18" width="18" xmlns="http://www.w3.org/2000/svg"><path d="m0 0h18v18h-18z" fill="#f0f3fa"/><path d="m13 5h-8v8h8zm-1 7-3-2-3 2zm-3-4-3 2.13v.87l3-2.13 3 2.13v-.87zm-3 .13 3-2.13 3 2.13v.87l-3-2.13-3 2.13z" fill="#c01727" fill-rule="evenodd"/></svg>

<!-- by TradingView --><svg width="18" height="18" viewBox="0 0 18 18" xmlns="http://www.w3.org/2000/svg"><path fill="#F0F3FA" d="M0 0h18v18H0z"/><path fill-rule="evenodd" d="M13 5H5v8h8V5Zm-1 7-3-2-3 2h6ZM9 8l-3 2.13V11l3-2.13L12 11v-.87L9 8Zm-3 .13L9 6l3 2.13V9L9 6.87 6 9v-.87Z" fill="#C01727"/></svg>
